X: 6059
T: Capelhouse, The
R: jig
M: 6/8
K: Adorian
c2A Bcd|dcB AGE|GFG AGA|BAB GAB
c2A Bcd|edB AGE|GFG AGE|GED D3:|
gfg efg|age edB|gfg efg|age e2f|
gfg efg|age edB|cBA Bed|BAA A3|
gfg efg|age edB|gfg efg|age ega|
bag agf|gfg e2d|cBA Bed|BAA A3||

